cssgg/edit-fade.svg

<svg
  width="24"
  height="24"
  viewBox="0 0 24 24"
  fill="none"
  xmlns="http://www.w3.org/2000/svg"
>
  <path
    d="M8 12C8 10.5194 8.8044 9.22675 10 8.53513V15.4649C8.8044 14.7733 8 13.4806 8 12Z"
    stroke="currentColor"
    stroke-opacity="0.3"
    stroke-width="4"
  />
  <path
    d="M14 15.4649V8.53513C15.1956 9.22675 16 10.5194 16 12C16 13.4806 15.1956 14.7733 14 15.4649Z"
    stroke="currentColor"
    stroke-opacity="0.6"
    stroke-width="4"
  />
  <path
    d="M3 12C3 7.02944 7.02944 3 12 3C16.9706 3 21 7.02944 21 12C21 16.9706 16.9706 21 12 21C7.02944 21 3 16.9706 3 12Z"
    stroke="currentColor"
    stroke-width="2"
  />
</svg>

<svg viewBox="0 0 24 24" xmlns="http://www.w3.org/2000/svg"><g stroke-width="4" stroke-opacity=".3" stroke="#000" fill="none"><path d="M8 12c0-1.49.8-2.78 2-3.47v6.92c-1.2-.7-2-1.99-2-3.47Z"/><path stroke-opacity=".6" d="M14 15.46V8.53c1.19.69 2 1.98 2 3.46s-.81 2.77-2 3.46Z"/></g><path fill="none" stroke="#000" stroke-width="2" d="M3 12c0-4.98 4.02-9 9-9 4.97 0 9 4.02 9 9 0 4.97-4.03 9-9 9 -4.98 0-9-4.03-9-9Z"/></svg>
